actions/22x22-light/curve-connector.svg

<svg viewBox="0 0 22 22" xmlns="http://www.w3.org/2000/svg"><path d="m6.7324219 5.1328125v1.0664063h9.6015621a2.1333334 2.1333334 0 0 1 2.132813 2.1347656 2.1333334 2.1333334 0 0 1 -2.132813 2.1328126h-9.6015621a3.2000001 3.2000001 0 0 0 -3.1992188 3.199219 3.2000001 3.2000001 0 0 0 3.1992188 3.201172h8.5351561v-1.066407h-8.5351561a2.1333334 2.1333334 0 0 1 -2.1328125-2.134765 2.1333334 2.1333334 0 0 1 2.1328125-2.132813h9.6015621a3.2000001 3.2000001 0 0 0 3.199219-3.1992186 3.2000001 3.2000001 0 0 0 -3.199219-3.2011719z" fill="#4d4d4d"/><path d="m5.1328125 3c-1.4727574 0-2.6660156 1.1932582-2.6660156 2.6660156s1.1932582 2.6679688 2.6660156 2.6679688 2.6679687-1.1952114 2.6679687-2.6679688-1.1952113-2.6660156-2.6679687-2.6660156zm11.7343755 10.666016c-1.472758 0-2.667969 1.195211-2.667969 2.667968 0 1.472758 1.195211 2.666016 2.667969 2.666016 1.472757 0 2.666015-1.193258 2.666015-2.666016 0-1.472757-1.193258-2.667968-2.666015-2.667968z" fill="#3daee9"/></svg>

<svg xmlns="http://www.w3.org/2000/svg" viewBox="0 0 22 22">
  <defs id="defs3051">
    <style type="text/css" id="current-color-scheme">
      .ColorScheme-Text {
        color:#4d4d4d;
      }
      .ColorScheme-Highlight {
        color:#3daee9;
      }
      </style>
  </defs>
 <path 
     style="fill:currentColor;fill-opacity:1;stroke:none" 
     d="M 6.7324219 5.1328125 L 6.7324219 6.1992188 L 16.333984 6.1992188 A 2.1333334 2.1333334 0 0 1 18.466797 8.3339844 A 2.1333334 2.1333334 0 0 1 16.333984 10.466797 L 6.7324219 10.466797 A 3.2000001 3.2000001 0 0 0 3.5332031 13.666016 A 3.2000001 3.2000001 0 0 0 6.7324219 16.867188 L 15.267578 16.867188 L 15.267578 15.800781 L 6.7324219 15.800781 A 2.1333334 2.1333334 0 0 1 4.5996094 13.666016 A 2.1333334 2.1333334 0 0 1 6.7324219 11.533203 L 16.333984 11.533203 A 3.2000001 3.2000001 0 0 0 19.533203 8.3339844 A 3.2000001 3.2000001 0 0 0 16.333984 5.1328125 L 6.7324219 5.1328125 z "
     class="ColorScheme-Text"
     />
 <path 
     style="fill:currentColor;fill-opacity:1;stroke:none" 
     d="M 5.1328125 3 C 3.6600551 3 2.4667969 4.1932582 2.4667969 5.6660156 C 2.4667969 7.138773 3.6600551 8.3339844 5.1328125 8.3339844 C 6.6055699 8.3339844 7.8007812 7.138773 7.8007812 5.6660156 C 7.8007812 4.1932582 6.6055699 3 5.1328125 3 z M 16.867188 13.666016 C 15.39443 13.666016 14.199219 14.861227 14.199219 16.333984 C 14.199219 17.806742 15.39443 19 16.867188 19 C 18.339945 19 19.533203 17.806742 19.533203 16.333984 C 19.533203 14.861227 18.339945 13.666016 16.867188 13.666016 z "
     class="ColorScheme-Highlight"
     />
</svg>
